X:1
T:Trinitas in unitate
T:Trinitas in unitate
T:Johann Prenner
T:Source : Musica Poëtica/collected by Johann Andreas Herbst---Nürnberg---J.Dümler---1643. Editor : André Vierendeels (26/03/15).
T:Kanon in epidiatessaron
T:Notes : Original clef : F4 Editorial accidentals above the staff Text from "Symbolum Anathasianum" not in original print " Altus in epidiapason, cantus vero in epidiatessaron"
C:Johann Prenner
%%score [ 1 2 3 ]
L:1/8
Q:1/4=94
M:2/2
K:F
V:1 treble nm="Cantus" snm="C"
V:2 treble nm="Altus" snm="A"
V:3 bass nm="Bassus" snm="B"
V:1
 z8 | z8 | z8 | z8 | c4 c2 c2 | B2 G2 B4 | c4 A4 | G8 | z4 F4 | c6 c2 | F4 B4- | B2 AG A4 | B4 G4 | %13
w: ||||Tri- ni- tas|in u- ni-|ta- *|te,|ve-|* ne-|ran- *||* da|
 F8 | z8 | B4 B2 B2 | c2 c3 B A2 | G4 z2 G2 | A2 F3 GAB | c8 | F4 z4 | z2 A2 A2 A2 | B3 A G4 | %23
w: sit,||Tri- ni- tas|in u- ni- ta-|te, in|u- ni- ta- * *||te,|in u- ni-|ta- * te|
 F6 F2 | G6 A2 | B8 | z8 | G6 G2 | A2 F2 A2 B2 | c8 | F6 G2 | A2 B3 A/G/ A2 | B4 z4 | z8 | G6 A2 | %35
w: ve- ne-|ran- da|sit.||Qui vult|er- go sal- vus|es-|se, de|Tri- ni- ta- * te,|te,||sen- ti-|
 B2 c3 B/A/ B2 | c8 |] %37
w: |at.|
V:2
 z8 | z8 | G4 G2 G2 | F2 D2 F4 | G4 E4 | D8 | z4 C4 | G6 G2 | C4 F4- | F2 ED E4 | F4 D4 | C8 | z8 | %13
w: ||Tri- ni- tas|in u- ni-|ta- *|te,|ve-|* ne-|ran- *||* da|sit,||
 F4 F2 F2 | G2 G3 F E2 | D4 z2 D2 | E2 C3 DEF | G8 | C4 z4 | z2 E2 E2 E2 | F3 E D4 | C6 C2 | %22
w: Tri- ni- tas|in u- ni- ta-|te, in|u- ni- ta- * *||te,|in u- ni-|ta- * te|ve- ne-|
 D6 E2 | F8 | z8 | D6 D2 | E2 C2 E2 F2 | G8 | C6 D2 | E2 F3 E/D/ E2 | F4 z4 | z8 | D6 E2 | %33
w: ran- da|sit.||Qui vult|er- go sal- vus|es-|se, de|Tri- ni- * * ta-|te,||i- ta|
 F2 G3 F/E/ F2 | G6 C2 | D2 E2 D4 | C8 |] %37
w: de Tri- ni- * ta-|te sen-|ti- * *|at.|
V:3
 G,4 G,2 G,2 | F,2 D,2 F,4 | G,4 E,4 | D,8 | z4 C,4 | G,6 G,2 | C,4 F,4- | F,2 E,D, E,4 | F,4 D,4 | %9
w: Tri- ni- tas|in u- ni-|ta- *|te,|ve-|* ne-|ran- *||* da|
 C,8 | z8 | F,4 F,2 F,2 | G,2 G,3 F, E,2 | D,4 z2 D,2 | E,2 C,3 D,E,F, | G,8 | C,4 z4 | %17
w: sit,||Tri- ni- tas|in u- ni- ta-|te in|u- ni- ta- * *||te|
 z2 E,2 E,2 E,2 | F,3 E, D,4 | C,6 C,2 | D,6 E,2 | F,8 | z8 | D,6 D,2 | E,2 C,2 E,2 F,2 | G,8 | %26
w: in u- ni-|ta- * te|ve- ne-|ran- da|sit.||Qui vult|er- go sal- vus|es-|
 C,6 D,2 | E,2 F,3 E,/D,/ E,2 | F,4 z4 | z8 | D,6 E,2 |"^-natural""^-natural" F,2 G,3 F,/E,/ F,2 | %32
w: se, de|Tri- ni- ta- * *|te,||i- ta|de Tr- ni- * ta-|
 G,6 C,2 | D,2 E,2 D,4 | E,3 F, G,E, F,2 | z2 C,2 G,4 | C,8 |] %37
w: te sen-|ti- * *|* * * * at,|sen- ti-|at.|

